X: 04072
T: PETER'S TREAT REEL
C: Bob McQuillen 11 May 79
B: Bob's Note Book 04 #72
R: reel
Z: 2020 John Chambers <jc:trillian.mit.edu>
M: C
L: 1/8
K: A
EF \
| A2AE FEAc | BAFA FEAc | e2ae fecA | BABc BAFE |
| A2AE FEAc | BAFA FEAc | e2ae faec | BABc A2  :|
|: fg \
| a2ab agfe | cABc AF fg | a2ab agfe | cffe f2fg |
| a2ab agfe | cABc AF ag | fecA BAcB | AFFE F2  :|
%%begintext align
%% Peter Barnes is one of
%% the best Contra Dance
%% Musicians I know, and
%% this tune is for him, with
%% fondest Best Wishes always.
%%endtext

%%sep 1 1 500

%%sep 1 1 500

